X:4831
L:1/8
M:4/4
K:Amin
 A2 e2 e2 dc | B3 A A2 ^G2 | A2 B2 c2 d2 | edef (e2 e2) :| e2 ef g2 e2 | d2 de f2 ed | 
 e2 f2 g2 fe | d2 c2 B4 | cd e2 e2 dc | Bc d2 d2 cB | c2 BA e2 dc | B3 A A4 ||

